src/assets/img/USDT.svg

<svg width="24" height="24" viewBox="0 0 24 24" fill="none" xmlns="http://www.w3.org/2000/svg">
<path d="M23.9349 12.0002C23.9349 18.5927 18.5908 23.9371 11.9983 23.9371C5.40576 23.9371 0.0615234 18.5927 0.0615234 12.0002C0.0615234 5.40775 5.40576 0.0635071 11.9983 0.0635071C18.5907 0.0635071 23.9349 5.40775 23.9349 12.0002Z" fill="#50AF95"/>
<path d="M10.7742 11.7912V9.70295H7.94189V7.87248H15.8566V9.72873H13.0242V11.7912H10.7742Z" fill="white"/>
<path fill-rule="evenodd" clip-rule="evenodd" d="M6.72424 12.0233C6.72424 11.3272 9.00071 10.76 11.8331 10.76C14.6654 10.76 16.9419 11.3272 16.9419 12.0233C16.9419 12.7194 14.6654 13.2865 11.8331 13.2865C9.00071 13.2865 6.72424 12.7194 6.72424 12.0233ZM16.5184 12.0233C16.3331 11.7655 14.7978 10.9662 11.8331 10.9662C8.86836 10.9662 7.33307 11.7397 7.14777 12.0233C7.33307 12.2811 8.86836 12.6678 11.8331 12.6678C14.8242 12.6678 16.3331 12.2811 16.5184 12.0233Z" fill="white"/>
<path d="M13.0507 12.4357V10.992C12.6757 10.9662 12.2739 10.9404 11.8721 10.9404C11.4971 10.9404 11.1489 10.9404 10.8007 10.9662V12.41C11.1221 12.41 11.4971 12.4357 11.8721 12.4357C12.2739 12.4615 12.6757 12.4615 13.0507 12.4357Z" fill="white"/>
<path d="M11.8331 13.2865C11.4625 13.2865 11.1183 13.2865 10.7742 13.2607V17.1021H12.9978V13.235C12.6272 13.2607 12.2301 13.2865 11.8331 13.2865Z" fill="white"/>
</svg>

<svg xmlns="http://www.w3.org/2000/svg" width="24" height="24" fill="none"><path fill="#50AF95" d="M23.935 12c0 6.593-5.344 11.937-11.937 11.937C5.406 23.937.062 18.593.062 12 .062 5.408 5.406.064 11.998.064 18.591.064 23.935 5.408 23.935 12Z"/><path fill="#fff" d="M10.774 11.791V9.703H7.942v-1.83h7.915v1.856h-2.833v2.062h-2.25Z"/><path fill="#fff" fill-rule="evenodd" d="M6.724 12.023c0-.696 2.277-1.263 5.11-1.263 2.831 0 5.108.567 5.108 1.263s-2.277 1.264-5.109 1.264-5.109-.568-5.109-1.264Zm9.794 0c-.185-.258-1.72-1.057-4.685-1.057s-4.5.774-4.685 1.057c.185.258 1.72.645 4.685.645 2.991 0 4.5-.387 4.685-.645Z" clip-rule="evenodd"/><path fill="#fff" d="M13.05 12.436v-1.444a17.216 17.216 0 0 0-1.178-.052c-.375 0-.723 0-1.071.026v1.444c.321 0 .696.026 1.071.026a8.98 8.98 0 0 0 1.179 0ZM11.833 13.287c-.37 0-.715 0-1.059-.026v3.841h2.224v-3.867c-.37.026-.768.052-1.165.052Z"/></svg>
